static/assets/head_icons_png/man/bizi/1014328.svg

<svg xmlns="http://www.w3.org/2000/svg" width="6" height="10"><g><path d="M1.75 8.95q-.15-.1-.65-.25l-.65-.2.35-.1h.05l.4.1v.05l.45.3.15.15-.1-.05m2.3-.25l-.5.05L3.1 9v-.1l.35-.35q.2-.15.55-.15.3-.05.35.2l-.05.1h-.25" fill="#823909"/><radialGradient id="a" gradientUnits="userSpaceOnUse" gradientTransform="matrix(.0007 .00006 -.00003 .00269 2.25 4.2)" spreadMethod="pad" cx="0" cy="0" r="819.2" fx="0" fy="0"><stop offset=".314" stop-color="#fff" stop-opacity=".431"/><stop offset="1" stop-color="#fff" stop-opacity="0"/></radialGradient><path d="M2.6 2.7l.1 1.55-.15 1.55-.05.3-.05.05-.2.25-.2-.3v-.05l-.1-.3-.1-1.55q0-.95.15-1.55.1-.65.3-.6l.3.65" fill="url(#a)"/><radialGradient id="b" gradientUnits="userSpaceOnUse" gradientTransform="matrix(.00053 .00003 -.00003 .00053 2.15 7.1)" spreadMethod="pad" cx="0" cy="0" r="819.2" fx="0" fy="0"><stop offset=".314" stop-color="#fff" stop-opacity=".431"/><stop offset="1" stop-color="#fff" stop-opacity="0"/></radialGradient><path d="M1.7 7.1q0-.2.15-.3l.3-.1.3.15.1.3-.15.3-.3.1-.3-.15-.1-.3" fill="url(#b)"/><radialGradient id="c" gradientUnits="userSpaceOnUse" gradientTransform="matrix(.00511 .00023 -.00006 .00151 2.5 9.1)" spreadMethod="pad" cx="0" cy="0" r="819.2" fx="0" fy="0"><stop offset="0" stop-color="#f08c4a"/><stop offset="1" stop-color="#f9c29f"/></radialGradient><path d="M3.95 6.35l.35.45.4.2.35.4-.1.6-.35.55-.3.15.05-.1Q4.3 8.35 4 8.4q-.35 0-.55.15l-.35.35V9l-.45.25-.55-.05-.25-.2-.15-.15-.45-.3V8.5l-.4-.1H.8l-.35.1-.4-.3v-.6q.05-.5.7-.9l.1-.05.35.2.45.6.75.5q.3 0 .45-.2l.15-.5V5.9l-.1-1.6q0-.8.35-2.6.4-1 1.05-1.7l-.45 2.15v.05l-.3 1.75q-.15.7 0 1.25l.25.85.15.3" fill="url(#c)"/><radialGradient id="d" gradientUnits="userSpaceOnUse" gradientTransform="matrix(.00235 0 0 .00429 3.5 4.1)" spreadMethod="pad" cx="0" cy="0" r="819.2" fx="210473" fy="0"><stop offset=".337" stop-color="#f9c29f"/><stop offset="1" stop-color="#fedec1" stop-opacity="0"/></radialGradient><path d="M5.65 3.85V5.2q-1.6.1-1.85.85l-.25-.85q-.15-.55 0-1.25l.3-1.75v-.05q.55 1.55 1.8 1.7" fill="url(#d)"/></g></svg>

<?xml version="1.0" encoding="utf-8"?>
<svg version="1.1" id="Layer_1"
xmlns="http://www.w3.org/2000/svg"
xmlns:xlink="http://www.w3.org/1999/xlink"
xmlns:author="http://www.sothink.com"
width="6px" height="10px"
xml:space="preserve">
<g id="460" transform="matrix(1, 0, 0, 1, 0, 0)">
<path style="fill:#823909;fill-opacity:1" d="M1.75,8.95Q1.6 8.85 1.1 8.7L0.45 8.5L0.8 8.4L0.85 8.4L1.25 8.5L1.25 8.55L1.7 8.85L1.85 9L1.75 8.95M4.05,8.7L3.55 8.75L3.1 9L3.1 8.95L3.1 8.9L3.45 8.55Q3.65 8.4 4 8.4Q4.3 8.35 4.35 8.6L4.3 8.7L4.05 8.7" />
<radialGradient
id="RadialGradID_4033" gradientUnits="userSpaceOnUse" gradientTransform="matrix(0.000701904, 6.10352e-005, -3.05176e-005, 0.00268555, 2.25, 4.2)" spreadMethod ="pad" cx="0" cy="0" r="819.2" fx="0" fy="0" >
<stop  offset="0.313725"  style="stop-color:#FFFFFF;stop-opacity:0.431373" />
<stop  offset="1"  style="stop-color:#FFFFFF;stop-opacity:0" />
</radialGradient>
<path style="fill:url(#RadialGradID_4033) " d="M2.6,2.7L2.7 4.25L2.55 5.8L2.5 6.1L2.45 6.15L2.25 6.4L2.05 6.1L2.05 6.05L1.95 5.75L1.85 4.2Q1.85 3.25 2 2.65Q2.1 2 2.3 2.05L2.6 2.7" />
<radialGradient
id="RadialGradID_4034" gradientUnits="userSpaceOnUse" gradientTransform="matrix(0.000534058, 3.05176e-005, -3.05176e-005, 0.000534058, 2.15, 7.1)" spreadMethod ="pad" cx="0" cy="0" r="819.2" fx="0" fy="0" >
<stop  offset="0.313725"  style="stop-color:#FFFFFF;stop-opacity:0.431373" />
<stop  offset="1"  style="stop-color:#FFFFFF;stop-opacity:0" />
</radialGradient>
<path style="fill:url(#RadialGradID_4034) " d="M1.7,7.1Q1.7 6.9 1.85 6.8L2.15 6.7L2.45 6.85L2.55 7.15L2.4 7.45L2.1 7.55L1.8 7.4L1.7 7.1" />
<radialGradient
id="RadialGradID_4035" gradientUnits="userSpaceOnUse" gradientTransform="matrix(0.00511169, 0.000228882, -6.10352e-005, 0.00151062, 2.5, 9.1)" spreadMethod ="pad" cx="0" cy="0" r="819.2" fx="0" fy="0" >
<stop  offset="0"  style="stop-color:#F08C4A;stop-opacity:1" />
<stop  offset="1"  style="stop-color:#F9C29F;stop-opacity:1" />
</radialGradient>
<path style="fill:url(#RadialGradID_4035) " d="M3.95,6.35L4.3 6.8L4.7 7L5.05 7.4L4.95 8L4.6 8.55L4.3 8.7L4.35 8.6Q4.3 8.35 4 8.4Q3.65 8.4 3.45 8.55L3.1 8.9L3.1 8.95L3.1 9L2.65 9.25L2.1 9.2L1.85 9L1.7 8.85L1.25 8.55L1.25 8.5L0.85 8.4L0.8 8.4L0.45 8.5L0.05 8.2L0.05 7.6Q0.1 7.1 0.75 6.7L0.85 6.65L1.2 6.85L1.65 7.45L2.4 7.95Q2.7 7.95 2.85 7.75L3 7.25L3 5.9L2.9 4.3Q2.9 3.5 3.25 1.7Q3.65 0.7 4.3 0L3.85 2.15L3.85 2.2L3.55 3.95Q3.4 4.65 3.55 5.2L3.8 6.05L3.95 6.35" />
<radialGradient
id="RadialGradID_4036" gradientUnits="userSpaceOnUse" gradientTransform="matrix(0.00234985, 0, 0, 0.00428772, 3.5, 4.1)" spreadMethod ="pad" cx="0" cy="0" r="819.2" fx="210473" fy="0" >
<stop  offset="0.337255"  style="stop-color:#F9C29F;stop-opacity:1" />
<stop  offset="1"  style="stop-color:#FEDEC1;stop-opacity:0" />
</radialGradient>
<path style="fill:url(#RadialGradID_4036) " d="M5.65,3.85L5.65 5.2Q4.05 5.3 3.8 6.05L3.55 5.2Q3.4 4.65 3.55 3.95L3.85 2.2L3.85 2.15Q4.4 3.7 5.65 3.85" />
</g>
</svg>
